packages/design-system/icons/Download.svg

<svg viewBox="0 0 30 30" fill="none" xmlns="http://www.w3.org/2000/svg">
<path d="M25.9125 17.425C25.5909 17.425 25.2825 17.5527 25.0551 17.7801C24.8277 18.0075 24.7 18.3159 24.7 18.6375V23.4875C24.7 23.8091 24.5723 24.1175 24.3449 24.3449C24.1175 24.5723 23.8091 24.7 23.4875 24.7H6.5125C6.19092 24.7 5.88252 24.5723 5.65513 24.3449C5.42775 24.1175 5.3 23.8091 5.3 23.4875V18.6375C5.3 18.3159 5.17225 18.0075 4.94487 17.7801C4.71748 17.5527 4.40907 17.425 4.0875 17.425C3.76592 17.425 3.45752 17.5527 3.23013 17.7801C3.00275 18.0075 2.875 18.3159 2.875 18.6375V23.4875C2.875 24.4522 3.25824 25.3774 3.9404 26.0596C4.62256 26.7418 5.54777 27.125 6.5125 27.125H23.4875C24.4522 27.125 25.3774 26.7418 26.0596 26.0596C26.7418 25.3774 27.125 24.4522 27.125 23.4875V18.6375C27.125 18.3159 26.9973 18.0075 26.7699 17.7801C26.5425 17.5527 26.2341 17.425 25.9125 17.425ZM14.1391 19.4984C14.2544 19.6088 14.3904 19.6953 14.5392 19.753C14.6844 19.8171 14.8413 19.8503 15 19.8503C15.1587 19.8503 15.3156 19.8171 15.4607 19.753C15.6096 19.6953 15.7456 19.6088 15.8609 19.4984L20.7109 14.6484C20.9392 14.4201 21.0675 14.1104 21.0675 13.7875C21.0675 13.4646 20.9392 13.1549 20.7109 12.9266C20.4826 12.6983 20.1729 12.57 19.85 12.57C19.5271 12.57 19.2174 12.6983 18.9891 12.9266L16.2125 15.7154V4.0875C16.2125 3.76592 16.0848 3.45752 15.8574 3.23013C15.63 3.00275 15.3216 2.875 15 2.875C14.6784 2.875 14.37 3.00275 14.1426 3.23013C13.9152 3.45752 13.7875 3.76592 13.7875 4.0875V15.7154L11.0109 12.9266C10.8978 12.8136 10.7636 12.7239 10.6159 12.6627C10.4682 12.6015 10.3099 12.57 10.15 12.57C9.99012 12.57 9.83181 12.6015 9.6841 12.6627C9.53639 12.7239 9.40218 12.8136 9.28912 12.9266C9.17607 13.0397 9.0864 13.1739 9.02521 13.3216C8.96403 13.4693 8.93254 13.6276 8.93254 13.7875C8.93254 13.9474 8.96403 14.1057 9.02521 14.2534C9.0864 14.4011 9.17607 14.5353 9.28912 14.6484L14.1391 19.4984Z" fill="currentColor"/>
</svg>

<svg viewBox="0 0 30 30" fill="none" xmlns="http://www.w3.org/2000/svg">
    <path d="M25.91 17.43a1.21 1.21 0 0 0-1.21 1.2v4.86a1.21 1.21 0 0 1-1.21 1.21H6.5a1.21 1.21 0 0 1-1.21-1.21v-4.85a1.21 1.21 0 1 0-2.42 0v4.85a3.64 3.64 0 0 0 3.63 3.64H23.5a3.64 3.64 0 0 0 3.64-3.64v-4.85a1.21 1.21 0 0 0-1.22-1.21ZM14.14 19.5c.11.1.25.2.4.25a1.14 1.14 0 0 0 .92 0c.15-.05.29-.14.4-.25l4.85-4.85A1.22 1.22 0 0 0 19 12.93l-2.78 2.79V4.09a1.21 1.21 0 1 0-2.42 0v11.63L11 12.92a1.22 1.22 0 0 0-1.72 1.73l4.85 4.85Z" fill="currentColor"/>
</svg>
